X: 4
T: The Killavil Fancy
R: reel
M: 4/4
L: 1/8
K: Gmaj
|:DGBG A2BA|GE E2 cEGE|DGBG A2BA|GEED EGGA|
B3G A2BA|GE E2 cEGE|DGBG A2BA|GEED EGGD||
|:G2(3Bcd egge|dB B2 dBAB|G2(3Bcd egge|dBAG EGGD|
G2(3Bcd egge|dB B2 dega|bgag egde|gedB AGEG||
|:DGBG A2BA|GE E2 cEGE|DEGB AGBA|GEED EGGA|
B3d A2BA|GE E2 cEGE|DGBG A2BA|GEED EGGD||
|:G2(3Bcd egge|dB B2 dBAB|G2(3Bcd egge|dBAG EGDE|
G2(3Bcd egge|dB B2 dega|bgag egde|gedB AGED||


Tune 576	Setting 576

